svg/outline/mastercard-old.svg

<svg height="471" viewBox="0 0 750 471" width="750" xmlns="http://www.w3.org/2000/svg"><g fill="#393939"><path d="m52.8846154 28.2035928c-13.2760757 0-24.0384616 10.5226489-24.0384616 23.502994v367.5868262c0 12.980345 10.7623859 23.502994 24.0384616 23.502994h644.2307696c13.276075 0 24.038461-10.522649 24.038461-23.502994v-367.5868262c0-12.9803451-10.762386-23.502994-24.038461-23.502994zm0-28.2035928h644.2307696c29.207366 0 52.884615 23.1498275 52.884615 51.7065868v367.5868262c0 28.55676-23.677249 51.706587-52.884615 51.706587h-644.2307696c-29.2073666 0-52.8846154-23.149827-52.8846154-51.706587v-367.5868262c0-28.5567593 23.6772488-51.7065868 52.8846154-51.7065868z"/><g transform="translate(61 40)"><path d="m627.975838 195.157578c0 107.239315-87.429249 194.513515-194.887555 194.513515-44.820081 0-86.138458-15.215265-119.101584-40.659633-32.941321 25.444368-74.259262 40.659633-119.081524 40.659633-107.4556883 0-194.88101322-87.2742-194.88101322-194.513515 0-107.243231 87.42532492-194.47608767 194.88101322-194.47608767 44.822262 0 86.140203 15.15825377 119.081524 40.63961347 32.963126-25.4813597 74.281503-40.63961347 119.101584-40.63961347 107.458306 0 194.887555 87.23285667 194.887555 194.47608767zm-195.168344-177.2967564c-39.530458 0-76.025814 12.9256427-105.509038 34.7382089 26.740295 24.8372539 46.516425 57.0904325 55.966232 93.4389055h-18.062345c-9.253571-32.135672-27.34208-60.5068051-51.496433-82.341131-24.128188 21.8343259-42.22978 50.205459-51.448466 82.341131h-18.088509c9.47161-36.348473 29.247742-68.6016516 55.988035-93.4389055-29.500666-21.8125662-65.982503-34.7382089-105.532585-34.7382089-97.9866942 0-177.4208919 79.2729233-177.4208919 177.0852234 0 97.787057 79.4341977 177.084787 177.4208919 177.084787 39.550082 0 76.031919-12.925207 105.532585-34.736468-25.161691-23.387145-44.14416-53.350265-54.178312-87.078793h18.262941c9.702731 29.5327 26.927807 55.599413 49.464311 75.977537 22.562667-20.378124 39.809547-46.444837 49.51228-75.977537h18.258579c-10.051595 33.728528-29.029702 63.691648-54.178313 87.078793 29.483224 21.811261 65.97858 34.736468 105.509038 34.736468 97.986694 0 177.422636-79.29773 177.422636-177.084787 0-97.8123001-79.435942-177.0852234-177.422636-177.0852234z" stroke="#979797"/><path d="m122.86111 152.432251h-28.410036l-17.7544743 52.824969-.7395874-52.824969h-26.3282014l-14.2915792 85.349716h17.1330626l11.0039887-65.206169 1.5367389 65.206169h12.4827284l23.3929607-65.595679-10.4811319 65.595679h18.2982629z"/><path d="m170.015636 237.698823h-15.167224l.352351-7.199626c-4.629839 5.686412-10.794235 8.406455-19.171727 8.406455-9.937779 0-16.703962-7.743635-16.703962-18.943248 0-16.923888 11.801139-26.761738 32.102743-26.761738 2.080092 0 4.744092.193667 7.466089.542267.565593-2.310513.702086-3.279283.702086-4.522233 0-4.579682-3.172031-6.307018-11.728315-6.307018-8.943084-.11707-16.332423 2.116411-19.366217 3.124785.195799-1.164614 2.548439-15.603035 2.548439-15.603035 9.101381-2.677392 15.126233-3.687072 21.894161-3.687072 15.712321 0 24.035303 7.024238 24.016552 20.338956.018751 3.570001-.565594 7.974729-1.47874 13.780388-1.594301 10.030212-4.997888 31.57295-5.466236 36.831119zm-12.856571-30.593352c-1.924847-.195844-2.762989-.272005-4.084741-.272005-10.384321 0-15.615512 3.547806-15.615512 10.536792 0 4.329873 2.567191 7.083862 6.534627 7.083862 7.467833 0 12.833335-7.083862 13.165626-17.348649z"/><path d="m409.634735 150.523436c-24.25029 0-41.209357 21.308161-41.209357 51.818771 0 22.664701 12.275591 36.834165 31.973228 36.834165 5.054142 0 9.428004-.66282 16.156685-2.5242l3.209532-19.428068c-6.048399 2.971592-11.024047 4.386014-15.541814 4.386014-10.635939 0-17.055005-7.840686-17.055005-20.786348 0-18.803981 9.554466-31.982479 23.221146-31.982479 5.075946 0 9.820473 1.320852 16.352919 4.62059l2.995855-18.513262c-2.681879-1.047108-12.114243-4.425183-20.103189-4.425183z"/><path d="m475.451263 237.698823h-15.144984l.348862-7.199626c-4.64859 5.686412-10.832174 8.406455-19.196147 8.406455-9.916411 0-16.723586-7.743635-16.723586-18.943248 0-16.923888 11.843875-26.761738 32.125855-26.761738 2.080092 0 4.744528.193667 7.470015.542267.558179-2.310513.697724-3.279283.697724-4.522233 0-4.579682-3.170286-6.307018-11.708691-6.307018-8.9614-.11707-16.331115 2.116411-19.366217 3.124785.174431-1.164614 2.529252-15.603035 2.529252-15.603035 9.118387-2.677392 15.144983-3.687072 21.873664-3.687072 15.73369 0 24.058416 7.024238 24.036612 20.338956.039247 3.570001-.56254 7.974729-1.478304 13.780388-1.574241 10.030212-4.993091 31.57295-5.464055 36.831119zm-12.862676-30.593352c-1.90566-.195844-2.760373-.272005-4.103492-.272005-10.365571 0-15.615948 3.547806-15.615948 10.536792 0 4.329873 2.568499 7.083862 6.576054 7.083862 7.44821 0 12.833771-7.083862 13.143386-17.348649z"/><path d="m260.067396 221.615331c-1.225379.43042-2.838867.659774-4.918959.659774-4.356417 0-6.279521-1.550642-6.279521-5.142404.039248-2.210416 3.052545-18.629029 5.154441-31.807526h9.388756l2.490005-16.691053h-9.353871l2.119339-10.475428h-18.183139s-6.881744 40.849818-7.912196 47.311769c-1.166945 7.395035-2.64394 15.448102-2.529687 18.513263 0 9.880501 5.096441 15.257482 14.448131 15.257482 4.243037 0 8.145934-.701989 13.169551-2.252196z"/><path d="m315.968704 236.109447c-6.262078 1.90403-12.293034 2.796205-18.668493 2.796205-20.382279-.042216-30.996414-10.655605-30.996414-30.974541 0-23.717031 13.514053-41.182751 31.851126-41.182751 14.992357 0 24.581709 9.761253 24.581709 25.131453 0 5.084522-.680282 10.033258-2.258883 17.080127h-36.207544c-1.225379 10.030212 5.232934 14.223865 15.812183 14.223865 6.510642 0 12.367168-1.320853 18.899614-4.346846zm-9.536608-40.712749c.117741-1.436183 1.923104-12.423414-8.45991-12.423414-5.795475 0-9.955657 4.445203-11.625836 12.423414z"/><path d="m184.505902 190.230815c0 8.792483 4.23824 14.827496 13.922222 19.388463 7.409835 3.4921 8.556283 4.500039 8.556283 7.667475 0 4.304195-3.267096 6.245652-10.520378 6.245652-5.443997 0-10.53913-.816012-16.393912-2.71482 0 0-2.408457 15.291862-2.526198 16.031279 4.181986.892609 7.87513 1.742568 19.056602 2.056788 19.308219 0 28.215545-7.357607 28.215545-23.193478 0-9.565846-3.715383-15.116474-12.895258-19.331016-7.658399-3.530834-8.552794-4.307678-8.552794-7.547793 0-3.765844 3.052544-5.668133 8.982331-5.668133 3.577146 0 8.496541.389509 13.124635 1.048848l2.608182-16.10744c-4.745836-.738111-11.920625-1.35828-16.102611-1.35828-20.475164 0-27.552707 10.653863-27.474649 23.482455z"/><path d="m578.456133 237.781967h-17.321012l.872156-6.46021c-5.0367 5.338247-10.186779 7.667038-16.876214 7.667038-13.304735 0-22.091704-11.432448-22.091704-28.781098 0-23.117316 13.627433-42.561922 29.766674-42.561922 7.081905 0 12.48491 2.8728 17.486723 9.451822l4.042441-24.665346h18.049263zm-26.952954-15.907289c8.516601 0 14.525753-9.647664 14.525753-23.387579 0-8.829912-3.401407-13.605-9.707092-13.605-8.302923 0-14.194335 9.645923-14.194335 23.290093 0 9.100609 3.152843 13.702486 9.375674 13.702486z"/><path d="m495.228638 168.452296c-2.293769 21.466141-6.358015 43.219954-9.528301 64.725265l-.837269 4.674992h18.280383c6.554251-42.44137 8.145935-50.729014 18.393764-49.68147 1.630931-8.714583 4.666033-16.299802 6.959803-20.142243-7.67497-1.594598-11.957255 2.754424-17.53469 10.96373.444798-3.571742 1.242821-7.007701 1.06839-10.540274z"/><path d="m334.910017 168.452296c-2.298131 21.466141-6.37982 43.219954-9.550106 64.725265l-.837269 4.674992h18.297827c6.55425-42.44137 8.128491-50.729014 18.37632-49.68147 1.652736-8.714583 4.705281-16.299802 6.964164-20.142243-7.644445-1.594598-11.957254 2.754424-17.543412 10.96373.44916-3.571742 1.242822-7.007701 1.090195-10.540274z"/></g></g></svg>

<svg width="750" height="471" viewBox="0 0 750 471" version="1.1" xmlns="http://www.w3.org/2000/svg" xmlns:xlink="http://www.w3.org/1999/xlink">
    <!-- Generator: Sketch 48.2 (47327) - http://www.bohemiancoding.com/sketch -->
    <desc>Created with Sketch.</desc>
    <defs></defs>
    <g id="Page-1" stroke="none" stroke-width="1" fill="none" fill-rule="evenodd">
        <g id="mastercard" fill="#393939" fill-rule="nonzero">
            <path d="M52.8846154,28.2035928 C39.6085397,28.2035928 28.8461538,38.7262417 28.8461538,51.7065868 L28.8461538,419.293413 C28.8461538,432.273758 39.6085397,442.796407 52.8846154,442.796407 L697.115385,442.796407 C710.39146,442.796407 721.153846,432.273758 721.153846,419.293413 L721.153846,51.7065868 C721.153846,38.7262417 710.39146,28.2035928 697.115385,28.2035928 L52.8846154,28.2035928 Z M52.8846154,0 L697.115385,0 C726.322751,-5.0099645e-15 750,23.1498275 750,51.7065868 L750,419.293413 C750,447.850173 726.322751,471 697.115385,471 L52.8846154,471 C23.6772488,471 3.41607085e-15,447.850173 0,419.293413 L0,51.7065868 C-3.41607085e-15,23.1498275 23.6772488,5.0099645e-15 52.8846154,0 Z" id="Rectangle-1"></path>
            <g id="Group" transform="translate(61.000000, 40.000000)">
                <path d="M627.975838,195.157578 C627.975838,302.396893 540.546589,389.671093 433.088283,389.671093 C388.268202,389.671093 346.949825,374.455828 313.986699,349.01146 C281.045378,374.455828 239.727437,389.671093 194.905175,389.671093 C87.4494867,389.671093 0.0241617751,302.396893 0.0241617751,195.157578 C0.0241617751,87.914347 87.4494867,0.681490329 194.905175,0.681490329 C239.727437,0.681490329 281.045378,15.8397441 313.986699,41.3211038 C346.949825,15.8397441 388.268202,0.681490329 433.088283,0.681490329 C540.546589,0.681490329 627.975838,87.914347 627.975838,195.157578 Z M432.807494,17.8608216 C393.277036,17.8608216 356.78168,30.7864643 327.298456,52.5990305 C354.038751,77.4362844 373.814881,109.689463 383.264688,146.037936 L365.202343,146.037936 C355.948772,113.902264 337.860263,85.5311309 313.70591,63.696805 C289.577722,85.5311309 271.47613,113.902264 262.257444,146.037936 L244.168935,146.037936 C253.640545,109.689463 273.416677,77.4362844 300.15697,52.5990305 C270.656304,30.7864643 234.174467,17.8608216 194.624385,17.8608216 C96.6376908,17.8608216 17.2034931,97.1337449 17.2034931,194.946045 C17.2034931,292.733102 96.6376908,372.030832 194.624385,372.030832 C234.174467,372.030832 270.656304,359.105625 300.15697,337.294364 C274.995279,313.907219 256.01281,283.944099 245.978658,250.215571 L264.241599,250.215571 C273.94433,279.748271 291.169406,305.814984 313.70591,326.193108 C336.268577,305.814984 353.515457,279.748271 363.21819,250.215571 L381.476769,250.215571 C371.425174,283.944099 352.447067,313.907219 327.298456,337.294364 C356.78168,359.105625 393.277036,372.030832 432.807494,372.030832 C530.794188,372.030832 610.23013,292.733102 610.23013,194.946045 C610.23013,97.1337449 530.794188,17.8608216 432.807494,17.8608216 Z" id="path14-path" stroke="#979797"></path>
                <polygon id="path13" points="122.86111 152.432251 94.451074 152.432251 76.6965997 205.25722 75.9570123 152.432251 49.6288109 152.432251 35.3372317 237.781967 52.4702943 237.781967 63.474283 172.575798 65.0110219 237.781967 77.4937503 237.781967 100.886711 172.186288 90.4055791 237.781967 108.703842 237.781967"></polygon>
                <path d="M170.015636,237.698823 L154.848412,237.698823 L155.200763,230.499197 C150.570924,236.185609 144.406528,238.905652 136.029036,238.905652 C126.091257,238.905652 119.325074,231.162017 119.325074,219.962404 C119.325074,203.038516 131.126213,193.200666 151.427817,193.200666 C153.507909,193.200666 156.171909,193.394333 158.893906,193.742933 C159.459499,191.43242 159.595992,190.46365 159.595992,189.2207 C159.595992,184.641018 156.423961,182.913682 147.867677,182.913682 C138.924593,182.796612 131.535254,185.030093 128.50146,186.038467 C128.697259,184.873853 131.049899,170.435432 131.049899,170.435432 C140.15128,167.75804 146.176132,166.74836 152.94406,166.74836 C168.656381,166.74836 176.979363,173.772598 176.960612,187.087316 C176.979363,190.657317 176.395018,195.062045 175.481872,200.867704 C173.887571,210.897916 170.483984,232.440654 170.015636,237.698823 Z M157.159065,207.105471 C155.234218,206.909627 154.396076,206.833466 153.074324,206.833466 C142.690003,206.833466 137.458812,210.381272 137.458812,217.370258 C137.458812,221.700131 140.026003,224.45412 143.993439,224.45412 C151.461272,224.45412 156.826774,217.370258 157.159065,207.105471 Z" id="path15"></path>
                <path d="M409.634735,150.523436 C385.384445,150.523436 368.425378,171.831597 368.425378,202.342207 C368.425378,225.006908 380.700969,239.176372 400.398606,239.176372 C405.452748,239.176372 409.82661,238.513552 416.555291,236.652172 L419.764823,217.224104 C413.716424,220.195696 408.740776,221.610118 404.223009,221.610118 C393.58707,221.610118 387.168004,213.769432 387.168004,200.82377 C387.168004,182.019789 396.72247,168.841291 410.38915,168.841291 C415.465096,168.841291 420.209623,170.162143 426.742069,173.461881 L429.737924,154.948619 C427.056045,153.901511 417.623681,150.523436 409.634735,150.523436 Z" id="path17"></path>
                <path d="M475.451263,237.698823 L460.306279,237.698823 L460.655141,230.499197 C456.006551,236.185609 449.822967,238.905652 441.458994,238.905652 C431.542583,238.905652 424.735408,231.162017 424.735408,219.962404 C424.735408,203.038516 436.579283,193.200666 456.861263,193.200666 C458.941355,193.200666 461.605791,193.394333 464.331278,193.742933 C464.889457,191.43242 465.029002,190.46365 465.029002,189.2207 C465.029002,184.641018 461.858716,182.913682 453.320311,182.913682 C444.358911,182.796612 436.989196,185.030093 433.954094,186.038467 C434.128525,184.873853 436.483346,170.435432 436.483346,170.435432 C445.601733,167.75804 451.628329,166.74836 458.35701,166.74836 C474.0907,166.74836 482.415426,173.772598 482.393622,187.087316 C482.432869,190.657317 481.831082,195.062045 480.915318,200.867704 C479.341077,210.897916 475.922227,232.440654 475.451263,237.698823 Z M462.588587,207.105471 C460.682927,206.909627 459.828214,206.833466 458.485095,206.833466 C448.119524,206.833466 442.869147,210.381272 442.869147,217.370258 C442.869147,221.700131 445.437646,224.45412 449.445201,224.45412 C456.893411,224.45412 462.278972,217.370258 462.588587,207.105471 Z" id="path19"></path>
                <path d="M260.067396,221.615331 C258.842017,222.045751 257.228529,222.275105 255.148437,222.275105 C250.79202,222.275105 248.868916,220.724463 248.868916,217.132701 C248.908164,214.922285 251.921461,198.503672 254.023357,185.325175 L263.412113,185.325175 L265.902118,168.634122 L256.548247,168.634122 L258.667586,158.158694 L240.484447,158.158694 C240.484447,158.158694 233.602703,199.008512 232.572251,205.470463 C231.405306,212.865498 229.928311,220.918565 230.042564,223.983726 C230.042564,233.864227 235.139005,239.241208 244.490695,239.241208 C248.733732,239.241208 252.636629,238.539219 257.660246,236.989012 L260.067396,221.615331 Z" id="path21"></path>
                <path d="M315.968704,236.109447 C309.706626,238.013477 303.67567,238.905652 297.300211,238.905652 C276.917932,238.863436 266.303797,228.250047 266.303797,207.931111 C266.303797,184.21408 279.81785,166.74836 298.154923,166.74836 C313.14728,166.74836 322.736632,176.509613 322.736632,191.879813 C322.736632,196.964335 322.05635,201.913071 320.477749,208.95994 L284.270205,208.95994 C283.044826,218.990152 289.503139,223.183805 300.082388,223.183805 C306.59303,223.183805 312.449556,221.862952 318.982002,218.836959 L315.968704,236.109447 Z M306.432096,195.396698 C306.549837,193.960515 308.3552,182.973284 297.972186,182.973284 C292.176711,182.973284 288.016529,187.418487 286.34635,195.396698 L306.432096,195.396698 Z" id="path23"></path>
                <path d="M184.505902,190.230815 C184.505902,199.023298 188.744142,205.058311 198.428124,209.619278 C205.837959,213.111378 206.984407,214.119317 206.984407,217.286753 C206.984407,221.590948 203.717311,223.532405 196.464029,223.532405 C191.020032,223.532405 185.924899,222.716393 180.070117,220.817585 C180.070117,220.817585 177.66166,236.109447 177.543919,236.848864 C181.725905,237.741473 185.419049,238.591432 196.600521,238.905652 C215.90874,238.905652 224.816066,231.548045 224.816066,215.712174 C224.816066,206.146328 221.100683,200.5957 211.920808,196.381158 C204.262409,192.850324 203.368014,192.07348 203.368014,188.833365 C203.368014,185.067521 206.420558,183.165232 212.350345,183.165232 C215.927491,183.165232 220.846886,183.554741 225.47498,184.21408 L228.083162,168.10664 C223.337326,167.368529 216.162537,166.74836 211.980551,166.74836 C191.505387,166.74836 184.427844,177.402223 184.505902,190.230815 Z" id="path25"></path>
                <path d="M578.456133,237.781967 L561.135121,237.781967 L562.007277,231.321757 C556.970577,236.660004 551.820498,238.988795 545.131063,238.988795 C531.826328,238.988795 523.039359,227.556347 523.039359,210.207697 C523.039359,187.090381 536.666792,167.645775 552.806033,167.645775 C559.887938,167.645775 565.290943,170.518575 570.292756,177.097597 L574.335197,152.432251 L592.38446,152.432251 L578.456133,237.781967 Z M551.503179,221.874678 C560.01978,221.874678 566.028932,212.227014 566.028932,198.487099 C566.028932,189.657187 562.627525,184.882099 556.32184,184.882099 C548.018917,184.882099 542.127505,194.528022 542.127505,208.172192 C542.127505,217.272801 545.280348,221.874678 551.503179,221.874678 Z" id="path27"></path>
                <path d="M495.228638,168.452296 C492.934869,189.918437 488.870623,211.67225 485.700337,233.177561 L484.863068,237.852553 L503.143451,237.852553 C509.697702,195.411183 511.289386,187.123539 521.537215,188.171083 C523.168146,179.4565 526.203248,171.871281 528.497018,168.02884 C520.822048,166.434242 516.539763,170.783264 510.962328,178.99257 C511.407126,175.420828 512.205149,171.984869 512.030718,168.452296 L495.228638,168.452296 Z" id="path29"></path>
                <path d="M334.910017,168.452296 C332.611886,189.918437 328.530197,211.67225 325.359911,233.177561 L324.522642,237.852553 L342.820469,237.852553 C349.374719,195.411183 350.94896,187.123539 361.196789,188.171083 C362.849525,179.4565 365.90207,171.871281 368.160953,168.02884 C360.516508,166.434242 356.203699,170.783264 350.617541,178.99257 C351.066701,175.420828 351.860363,171.984869 351.707736,168.452296 L334.910017,168.452296 Z" id="path31"></path>
            </g>
        </g>
    </g>
</svg>
